X:2562
T:Cantar de Ronda (CT 204)
R:Ronda
C:Tradicional
S:Música Tradicional Asturiana, (C) Tello & Tito. Asturies, 2001.
S:http://pagina.de/MusTradAst <telloytito@asturies.org>
N:Canción de Ronda, transcrita en L.leitariegos
O:L.leitariegos
A:Asturies
Z:Cancioneru de Torner 204
M:3/4
L:1/8
Q:1/4=100
W:Dicen que tus manos pinchan,
W:para mí son amorosas;
W:también los rosales pinchan
W:y de ellos slaen las rosas.
K:G
|GA cc cB|(d3/2(3c/4B/4A/4G) A-A2|
GA cc cB|(d3/2(3c/4B/4A/4G) A-A2|
Ad dd cc|(B3/2(3c/4B/4A/4G) A-A2|
Ad dd cc|(B/A/4B/4A/G/4F/4)G2 z||


